X: 114
T: Mrs McLeod of Colbeck's Strathspey
R: strathspey
B: William Shepherd "1st Collection" 1793 p.11 #4
F: http://imslp.org/wiki/File:PMLP73094-Shepherd_Collections_HMT.pdf
C: William Shepherd (17??-1812)
Z: 2012 John Chambers <jc:trillian.mit.edu>
M: C
L: 1/8
K: D
A |\
D>AF>A D<d-d>A | TB>AB>d e>EE\
[1F | D>AF>A D>gfd | B<eA>c dDD :|\
[2g | f>de>c d>AB>G | C>EA>G FDD ||
a/g/ |\
f>da>d b>da>d | g>fe>d Tcdea/g/ |\
f>da>d b>da>d | c>eA>g fd-d ||
a/g/ |\
f>da>d b>da>d | g>fe>d Tc>dec |\
d>AB>d A>dA>F | G>E F/G/A/G/ FDD |]
